assets/awscleanrooms/original.svg

<svg height="64" viewBox="0 0 64 64" width="64" xmlns="http://www.w3.org/2000/svg"><g fill="none" fill-rule="evenodd"><path d="m0 0h64v64h-64z" fill="#8c4fff"/><path d="m32 33a1.001 1.001 0 0 1 0 2 1.001 1.001 0 0 1 0-2m-1 3.816v2.184h2v-2.184a3 3 0 0 0 2-2.816c0-1.654-1.346-3-3-3s-3 1.346-3 3c0 1.302.839 2.402 2 2.816m-15.586 10.598c-.756.756-2.072.756-2.828 0a1.99 1.99 0 0 1 -.586-1.414c0-.534.208-1.036.586-1.414s.88-.586 1.414-.586 1.036.208 1.414.586.586.88.586 1.414-.208 1.036-.586 1.414m3.879-8.121-3.272 3.272a3.96 3.96 0 0 0 -2.021-.565 3.98 3.98 0 0 0 -2.828 1.172 3.97 3.97 0 0 0 -1.172 2.828c0 1.068.416 2.073 1.172 2.828a3.98 3.98 0 0 0 2.828 1.172 3.98 3.98 0 0 0 2.828-1.172 3.97 3.97 0 0 0 1.172-2.828c0-.725-.206-1.413-.565-2.021l3.272-3.272zm32.121 8.121c-.756.756-2.072.756-2.828 0a1.99 1.99 0 0 1 -.586-1.414c0-.534.208-1.036.586-1.414s.88-.586 1.414-.586 1.036.208 1.414.586.586.88.586 1.414-.208 1.036-.586 1.414m-1.414-5.414c-.725 0-1.413.206-2.021.565l-3.272-3.272-1.414 1.414 3.272 3.272a3.96 3.96 0 0 0 -.565 2.021c0 1.068.416 2.073 1.172 2.828a3.98 3.98 0 0 0 2.828 1.172 3.98 3.98 0 0 0 2.828-1.172 3.97 3.97 0 0 0 1.172-2.828 3.97 3.97 0 0 0 -1.172-2.828 3.98 3.98 0 0 0 -2.828-1.172m-37.414-22.586a1.99 1.99 0 0 1 -.586-1.414c0-.534.208-1.036.586-1.414s.88-.586 1.414-.586 1.036.208 1.414.586.586.88.586 1.414-.208 1.036-.586 1.414c-.756.756-2.072.756-2.828 0m5.414-1.414a3.97 3.97 0 0 0 -1.172-2.828 3.98 3.98 0 0 0 -2.828-1.172 3.98 3.98 0 0 0 -2.828 1.172 3.97 3.97 0 0 0 -1.172 2.828c0 1.068.416 2.073 1.172 2.828a3.98 3.98 0 0 0 2.828 1.172c.725 0 1.413-.206 2.021-.565l3.272 3.272 1.414-1.414-3.272-3.272a3.96 3.96 0 0 0 .565-2.021m30.586-1.414c.378-.378.88-.586 1.414-.586s1.036.208 1.414.586.586.88.586 1.414-.208 1.036-.586 1.414c-.756.756-2.072.756-2.828 0a1.99 1.99 0 0 1 -.586-1.414c0-.534.208-1.036.586-1.414m-3.879 8.121 3.272-3.272a3.96 3.96 0 0 0 2.021.565 3.98 3.98 0 0 0 2.828-1.172 3.97 3.97 0 0 0 1.172-2.828 3.97 3.97 0 0 0 -1.172-2.828 3.98 3.98 0 0 0 -2.828-1.172 3.98 3.98 0 0 0 -2.828 1.172 3.97 3.97 0 0 0 -1.172 2.828c0 .725.206 1.413.565 2.021l-3.272 3.272zm-20.707 16.293h16v-11h-16zm4-15.93c0-1.141.939-2.07 2.095-2.07h3.81c1.156 0 2.095.929 2.095 2.07v2.93h-8zm6 24.93c0 1.103-.897 2-2 2s-2-.897-2-2 .897-2 2-2 2 .897 2 2m-4-36c0-1.103.897-2 2-2s2 .897 2 2-.897 2-2 2-2-.897-2-2m10.419 14h-2.419v-2.93c0-2.244-1.837-4.07-4.095-4.07h-.905v-3.142c1.721-.447 3-2 3-3.858 0-2.206-1.794-4-4-4s-4 1.794-4 4c0 1.858 1.279 3.411 3 3.858v3.142h-.905c-2.258 0-4.095 1.826-4.095 4.07v2.93h-2.419c-.872 0-1.581.694-1.581 1.548v11.904c0 .854.709 1.548 1.581 1.548h7.419v3.142c-1.721.447-3 2-3 3.858 0 2.206 1.794 4 4 4s4-1.794 4-4c0-1.858-1.279-3.411-3-3.858v-3.142h8a1 1 0 0 0 1-1v-12.452c0-.854-.709-1.548-1.581-1.548" fill="#fff"/></g></svg>

<svg xmlns="http://www.w3.org/2000/svg" width="64" height="64" viewBox="0 0 64 64"><title>Icon-Architecture/48/Arch_AWS-Clean-Rooms_48</title><g id="Icon-Architecture/48/Arch_AWS-Clean-Rooms_48" fill="none" fill-rule="evenodd" stroke="none" stroke-width="1"><g id="Icon-Architecture-BG/48/Analytics" fill="#8c4fff"><path id="Rectangle" d="M0 0h64v64H0z"/></g><path id="Fill-1" fill="#fff" d="M32 33a1.001 1.001 0 0 1 0 2 1.001 1.001 0 0 1 0-2m-1 3.816V39h2v-2.184A3 3 0 0 0 35 34c0-1.654-1.346-3-3-3s-3 1.346-3 3c0 1.302.839 2.402 2 2.816M15.414 47.414c-.756.756-2.072.756-2.828 0A1.99 1.99 0 0 1 12 46c0-.534.208-1.036.586-1.414S13.466 44 14 44s1.036.208 1.414.586S16 45.466 16 46s-.208 1.036-.586 1.414m3.879-8.121-3.272 3.272A3.96 3.96 0 0 0 14 42a3.98 3.98 0 0 0-2.828 1.172A3.97 3.97 0 0 0 10 46c0 1.068.416 2.073 1.172 2.828A3.98 3.98 0 0 0 14 50a3.98 3.98 0 0 0 2.828-1.172A3.97 3.97 0 0 0 18 46c0-.725-.206-1.413-.565-2.021l3.272-3.272zm32.121 8.121c-.756.756-2.072.756-2.828 0A1.99 1.99 0 0 1 48 46c0-.534.208-1.036.586-1.414S49.466 44 50 44s1.036.208 1.414.586S52 45.466 52 46s-.208 1.036-.586 1.414M50 42c-.725 0-1.413.206-2.021.565l-3.272-3.272-1.414 1.414 3.272 3.272A3.96 3.96 0 0 0 46 46c0 1.068.416 2.073 1.172 2.828A3.98 3.98 0 0 0 50 50a3.98 3.98 0 0 0 2.828-1.172A3.97 3.97 0 0 0 54 46a3.97 3.97 0 0 0-1.172-2.828A3.98 3.98 0 0 0 50 42M12.586 19.414A1.99 1.99 0 0 1 12 18c0-.534.208-1.036.586-1.414S13.466 16 14 16s1.036.208 1.414.586S16 17.466 16 18s-.208 1.036-.586 1.414c-.756.756-2.072.756-2.828 0M18 18a3.97 3.97 0 0 0-1.172-2.828A3.98 3.98 0 0 0 14 14a3.98 3.98 0 0 0-2.828 1.172A3.97 3.97 0 0 0 10 18c0 1.068.416 2.073 1.172 2.828A3.98 3.98 0 0 0 14 22c.725 0 1.413-.206 2.021-.565l3.272 3.272 1.414-1.414-3.272-3.272A3.96 3.96 0 0 0 18 18m30.586-1.414c.378-.378.88-.586 1.414-.586s1.036.208 1.414.586S52 17.466 52 18s-.208 1.036-.586 1.414c-.756.756-2.072.756-2.828 0A1.99 1.99 0 0 1 48 18c0-.534.208-1.036.586-1.414m-3.879 8.121 3.272-3.272A3.96 3.96 0 0 0 50 22a3.98 3.98 0 0 0 2.828-1.172A3.97 3.97 0 0 0 54 18a3.97 3.97 0 0 0-1.172-2.828A3.98 3.98 0 0 0 50 14a3.98 3.98 0 0 0-2.828 1.172A3.97 3.97 0 0 0 46 18c0 .725.206 1.413.565 2.021l-3.272 3.272zM24 41h16V30H24zm4-15.93c0-1.141.939-2.07 2.095-2.07h3.81c1.156 0 2.095.929 2.095 2.07V28h-8zM34 50c0 1.103-.897 2-2 2s-2-.897-2-2 .897-2 2-2 2 .897 2 2m-4-36c0-1.103.897-2 2-2s2 .897 2 2-.897 2-2 2-2-.897-2-2m10.419 14H38v-2.93c0-2.244-1.837-4.07-4.095-4.07H33v-3.142c1.721-.447 3-2 3-3.858 0-2.206-1.794-4-4-4s-4 1.794-4 4c0 1.858 1.279 3.411 3 3.858V21h-.905C27.837 21 26 22.826 26 25.07V28h-2.419c-.872 0-1.581.694-1.581 1.548v11.904c0 .854.709 1.548 1.581 1.548H31v3.142c-1.721.447-3 2-3 3.858 0 2.206 1.794 4 4 4s4-1.794 4-4c0-1.858-1.279-3.411-3-3.858V43h8a1 1 0 0 0 1-1V29.548c0-.854-.709-1.548-1.581-1.548"/></g></svg>
